X:335
T:Reel 335
M:4/4
K:Amaj
L:1/8
AGED CA,A,C|B,>G (3GGG E>G (3GAB |AGAE CEA,d||GABG AcBG:||2GABd cAA2|c>A (3AAA c>e (3ede |BcdB  (3Bcd GB|cAAB c>e (3ede |BAGB Aced|cBAB cAeA|BABA dAGA|ecdB cBBA|GEDB, B,A,A,2|
